packages/ffe-icons/icons/filled/md/business_center.svg

<svg xmlns="http://www.w3.org/2000/svg" height="24" viewBox="0 -960 960 960" width="24"><path d="M440-360v-80h80v80h-80Zm-40-339.999h160v-67.691q0-4.616-3.846-8.462-3.847-3.847-8.463-3.847H412.309q-4.616 0-8.463 3.847Q400-772.306 400-767.69v67.691ZM172.309-140.001q-30.308 0-51.308-21t-21-51.308v-157.692h280v33.846q0 15.461 10.347 25.807 10.346 10.347 25.807 10.347h127.69q15.461 0 25.807-10.347 10.347-10.346 10.347-25.807v-33.846h280v157.692q0 30.308-21 51.308t-51.308 21H172.309Zm-72.308-289.998v-197.692q0-30.308 21-51.308t51.308-21h167.692v-67.691q0-30.307 21-51.307 21-21 51.308-21h135.382q30.308 0 51.308 21t21 51.307v67.691h167.692q30.308 0 51.308 21t21 51.308v197.692h-280v-33.846q0-15.461-10.347-25.807-10.346-10.347-25.807-10.347h-127.69q-15.461 0-25.807 10.347-10.347 10.346-10.347 25.807v33.846h-280Z"/></svg>

<svg xmlns="http://www.w3.org/2000/svg" height="24" viewBox="0 -960 960 960" width="24"><path d="M440-360v-80h80v80h-80Zm-40-340h160v-67.69q0-4.62-3.85-8.46-3.84-3.85-8.46-3.85H412.31q-4.62 0-8.46 3.85-3.85 3.84-3.85 8.46V-700ZM172.31-140Q142-140 121-161q-21-21-21-51.31V-370h280v33.84q0 15.47 10.35 25.81Q400.69-300 416.16-300h127.68q15.47 0 25.81-10.35Q580-320.69 580-336.16V-370h280v157.69Q860-182 839-161q-21 21-51.31 21H172.31ZM100-430v-197.69Q100-658 121-679q21-21 51.31-21H340v-67.69Q340-798 361-819q21-21 51.31-21h135.38Q578-840 599-819q21 21 21 51.31V-700h167.69Q818-700 839-679q21 21 21 51.31V-430H580v-33.84q0-15.47-10.35-25.81Q559.31-500 543.84-500H416.16q-15.47 0-25.81 10.35Q380-479.31 380-463.84V-430H100Z"/></svg>
